X:1
T:Title
%%score { 1 | ( 2 3 ) } 4
L:1/8
Q:1/4=120
M:none
K:C
V:1 treble nm="Part_1"
V:2 treble 
V:3 treble 
V:4 treble nm="Part_2"
V:1
 x8 | x8 | x8 | x8 | x8 | x8 | x8 | x8 || z2 [F,F,_B,D]/4[I:staff +1] f'2[I:staff -1] x7/4 z2 | %9
 z2 x _B,2 D/F/ z2 | !arpeggio![_B,DG_B]2[I:staff +1] c''[I:staff -1] [B,DGB]2 x z2 | %11
 [_B,E_B]2 [A,EA]2 [G,EG]2 z2 | !arpeggio![A,CFA]2 z2[I:staff +1] [d'g'b']2[I:staff -1] z2 | %13
[I:staff +1] g2 d'2[I:staff -1] C2 F/A/ | [EG_B]2 x2 [DFB]2 z2 | %15
 [_B,DEFA]2[I:staff +1] f2 !arpeggio![f'^a'=c'']2[I:staff -1] [B,E^A]2 | %16
[I:staff +1] C,,2 [F,A,D]2[I:staff -1] x2[K:treble+8] z2 | %17
 [DFc]2[I:staff +1] .A,,2[I:staff -1] _b2 c2 | z2 [_EGd]2 c2 G2 | %19
 A2[I:staff +1] [Bea]4[I:staff -1] D G/A/ | !arpeggio!E2 (z z _bb a2) | %21
[I:staff +1] [Bcdefg]3[I:staff -1] .c' (_b/ b/4a/[egg]/f/ | e/d/ !fermata!d2) z x2 z2 | %23
 z2[I:staff +1] [egb]2 [egb]2[I:staff -1] z2 | z8 | D,2 G,2 [^F,_B,]2 z2 | %26
 D2[I:staff +1] [fac'e']3 !arpeggio![gbe']2 |[I:staff -1] C2 _B,2 A,2 z2 | %28
 _B,2[I:staff +1] [gb=d']2 [fbd']2[I:staff -1] z2 | G,2 _B,2 D2 z2 | !arpeggio!G4 G2 z2 | z8 | z8 | %33
 z8 | z8 | z8 | z8 | z8 | z8 | z8 | z8 | z6 x | z8 | z8 | z8 | x8 | x8 |] %47
V:2
 x8 | x8 | x8 | x8 | x8 | x8 | x8 | x8 || x6 z2 | e'2 f' x3 z2 | A2 x4 z2 | d2 [f'a']2 x2 z2 | %12
 G2 x4 z2 | x7 | ^c2 !arpeggio![e'g'b']2 x2 z2 | x4[I:staff -1] [_B,E=G]2[I:staff +1] x2 | x8 | %17
 B,,,2 x6[K:treble+8] | x2 F,2 [_efa]4 | B,2 x6 | x8 | x25/4 | !fermata!z4 x2 z2 | B,2 x4 z2 | %24
 E2 [egb]2 [egb]2 z2 | B,2 [egb]2 [egb]2 z2 | A,2 x5 | B,2 [ab^d']2 [abd']2 z2 | E2 x4 z2 | %29
 E2 [gbd']2 [ac']2 z2 | A,2 [gbe']3 x z2 | z8 | z8 | z8 | z8 | z8 | z8 | z8 | z8 | z8 | z8 | z6 x | %42
 z8 | z8 | z8 | x8 | x8 |] %47
V:3
 x8 | x8 | x8 | x8 | x8 | x8 | x8 | x8 || x8 | x2 f'4 x2 | x8 | x8 | x8 | x7 | %14
 x2 !arpeggio![e'g'a'b']2 x4 | x8 | x8 | x6[K:treble+8] x2 | x8 | x8 | x8 | x25/4 | x8 | x8 | x8 | %25
 x8 | x5[I:staff -1] D2 | x8 | x8 | x8 | x4[I:staff +1] !arpeggio![gbe']2 x2 | x8 | x8 | x8 | x8 | %35
 x8 | x8 | x8 | x8 | x8 | x8 | x7 | x8 | x8 | x8 | x8 | x8 |] %47
V:4
 z8 | z8 | z8 | z8 | z8 | z8 | z8 | z8 ||[K:F][M:3/4][K:treble] z6 | z8 | z8 | z8 | z8 | z6 x | %14
 z8 | z6 x2 | z8 | z6 x2 | z6 x2 | z6 x2 | z6 x2 | z6 x/4 | z8 | z8 | z8 | z8 | z6 x | z8 | z8 | %29
 z8 | z8 | z8 | z8 | z8 | a'2 g'2 x2 z2 | f'2 =e'2 f'2 z2 | g'4 f'2 z2 | !arpeggio!d'2 x4 z2 | %38
 c'2 b2 c'2 z2 | d'2 c'2 g2 z2 | [f'b'd'']2 [f'b'd'']2 x2 z2 | %41
 ^c2 [g'b'e'']2 !arpeggio![g'b'e'']3 | f2 [e'^a'=c'']2 [e'a'd'']2 z2 | %43
 B2 [f'b'e'']2 [f'b'd'']2 z2 | A2 [e'g'=b']2 [d'f'a'b']2 z2 | G2 [d'g'b']2 [d'f'b']2 z2 | %46
 F2 [e'a'=c'']2 [e'a'c'']2 z2 |] %47

